images_breeze_svg/cmd/32/sortascending.svg

<svg viewBox="0 0 32 32" xmlns="http://www.w3.org/2000/svg"><path d="m8.1757812 14 .048828.900391h4.2578128l-4.482422 6.291015v.808594h6l-.0332-.9375h-4.4414094l4.4003904-6.201172v-.861328zm12.8242188 0v12.085938l-3.792969-3.792969-.707031.707031 4 4 1 1 1-1 4-4-.707031-.707031-3.792969 3.792969v-12.085938z" fill="#4d4d4d"/><path d="m11.091797 4c-1.032887 0-1.9647119.1911907-2.7929689.5742188l.3300781.8867187c.3556633-.1696938.7597842-.3004556 1.2128907-.3925781.4531061-.0969708.8768461-.1445313 1.2714841-.1445313.584653 0 1.011333.1377016 1.279297.4140625.272842.2763676.408203.6953876.408203 1.2578125v.7578125h-1.234375c-1.242389 0-2.1487128.1951662-2.7187498.5878906-.565165.387883-.8476562 1.0000468-.8476562 1.8339844 0 .6981814.2138308 1.2420344.6425781 1.6347654.4336125.392725 1.0074168.589844 1.7187499.589844 1.062118 0 1.923329-.405147 2.585938-1.214844l.132812 1.0625h.919922v-5.0761716c0-.9793971-.253062-1.6856708-.759766-2.1171875-.501824-.4363583-1.217865-.6542969-2.148437-.6542969zm.78125 4.1523438h.927734v1.6953124c-.57978.8484888-1.368403 1.2714848-2.367187 1.2714848-.365407 0-.6704581-.11493-.9140628-.347657-.2436046-.232727-.3652343-.563565-.3652343-.990234 0-.2375753.0225665-.4357057.0664062-.5957031.0438464-.1648523.1233039-.3154155.2402344-.4511719.1169305-.1406046.2777919-.248594.4824219-.3261719.2046296-.0824327.4665146-.1458259.7832026-.1894531.316682-.0436272.69825-.0664062 1.146485-.0664062z" fill="#1d99f3"/></svg>

<?xml version="1.0" encoding="UTF-8" standalone="no"?>
<svg
   xmlns:dc="http://purl.org/dc/elements/1.1/"
   xmlns:cc="http://creativecommons.org/ns#"
   xmlns:rdf="http://www.w3.org/1999/02/22-rdf-syntax-ns#"
   xmlns:svg="http://www.w3.org/2000/svg"
   xmlns="http://www.w3.org/2000/svg"
   xmlns:sodipodi="http://sodipodi.sourceforge.net/DTD/sodipodi-0.dtd"
   xmlns:inkscape="http://www.inkscape.org/namespaces/inkscape"
   viewBox="0 0 32 32"
   version="1.1"
   id="svg6"
   sodipodi:docname="sortascending.svg"
   inkscape:version="0.92.4 (unknown)"
   inkscape:export-filename="/home/rizmut/Dokumen/Rizmut/Github/tmp/breeze/cmd/32/sortascending.png"
   inkscape:export-xdpi="96"
   inkscape:export-ydpi="96">
  <metadata
     id="metadata12">
    <rdf:RDF>
      <cc:Work
         rdf:about="">
        <dc:format>image/svg+xml</dc:format>
        <dc:type
           rdf:resource="http://purl.org/dc/dcmitype/StillImage" />
      </cc:Work>
    </rdf:RDF>
  </metadata>
  <defs
     id="defs10" />
  <sodipodi:namedview
     pagecolor="#ffffff"
     bordercolor="#666666"
     borderopacity="1"
     objecttolerance="10"
     gridtolerance="10"
     guidetolerance="10"
     inkscape:pageopacity="0"
     inkscape:pageshadow="2"
     inkscape:window-width="1360"
     inkscape:window-height="714"
     id="namedview8"
     showgrid="true"
     inkscape:zoom="10.429825"
     inkscape:cx="12.478678"
     inkscape:cy="18.879082"
     inkscape:window-x="0"
     inkscape:window-y="28"
     inkscape:window-maximized="1"
     inkscape:current-layer="svg6">
    <inkscape:grid
       type="xygrid"
       id="grid822" />
  </sodipodi:namedview>
  <path
     d="m 8.1757812,14 0.048828,0.900391 H 12.482422 L 8,21.191406 V 22 h 6 l -0.0332,-0.9375 H 9.5253906 L 13.925781,14.861328 V 14 Z M 21,14 V 26.085938 L 17.207031,22.292969 16.5,23 l 4,4 1,1 1,-1 4,-4 L 25.792969,22.292969 22,26.085938 V 14 Z"
     id="path2"
     inkscape:connector-curvature="0"
     style="fill:#4d4d4d"
     sodipodi:nodetypes="ccccccccccccccccccccccc" />
  <path
     d="m11.091797 4c-1.032887 0-1.9647119.1911907-2.7929689.5742188l.3300781.8867187c.3556633-.1696938.7597842-.3004556 1.2128907-.3925781.4531061-.0969708.8768461-.1445313 1.2714841-.1445313.584653 0 1.011333.1377016 1.279297.4140625.272842.2763676.408203.6953876.408203 1.2578125v.7578125h-1.234375c-1.242389 0-2.1487128.1951662-2.7187498.5878906-.565165.387883-.8476562 1.0000468-.8476562 1.8339844 0 .6981814.2138308 1.2420344.6425781 1.6347654.4336125.392725 1.0074168.589844 1.7187499.589844 1.062118 0 1.923329-.405147 2.585938-1.214844l.132812 1.0625h.919922v-5.0761716c0-.9793971-.253062-1.6856708-.759766-2.1171875-.501824-.4363583-1.217865-.6542969-2.148437-.6542969zm.78125 4.1523438h.927734v1.6953124c-.57978.8484888-1.368403 1.2714848-2.367187 1.2714848-.365407 0-.6704581-.11493-.9140628-.347657-.2436046-.232727-.3652343-.563565-.3652343-.990234 0-.2375753.0225665-.4357057.0664062-.5957031.0438464-.1648523.1233039-.3154155.2402344-.4511719.1169305-.1406046.2777919-.248594.4824219-.3261719.2046296-.0824327.4665146-.1458259.7832026-.1894531.316682-.0436272.69825-.0664062 1.146485-.0664062z"
     fill="#1d99f3"
     id="path4" />
</svg>
